X: 16413
T: Gypsy Rover, The
R: polka
M: 2/4
K: Cmajor
|:Gcde/d/|cGGE/F/|Gcde/f/|e2 d2|
Gcd e/f/|g e/d/ c c/d/|ee d/c/A|Gc2A|G2 G2:|

